X:1
T:James Gibb editions
T:Ego sum panis vivus - Caldara
T:#
%%score [ 1 2 ] { ( 3 4 ) | 5 }
L:1/8
Q:1/4=84
M:4/4
K:Bb
V:1 treble nm="Soprano" snm="S"
V:2 treble nm="Alto" snm="A"
V:3 treble nm="Organ"
V:4 treble 
V:5 bass 
V:1
"^largo""^Ego sum panis vivus""^Antonio Caldara\n(1670 -1736)" z8 | z8 | z8 | z8 | z8 | %5
w: |||||
[Q:1/4=76][Q:1/4=76][Q:1/4=76] z2 d=B G4 | z eee e2 d2 | d2 (fd) =B2 cd | (edcB A2 Bc | d6 c2) | %10
w: E- go sum,|sum pa- nis vi- vus,|qui de * coe- lo de-|scen\- * * * * * *||
 d4 z2 dB | G4- z ccc | c2 B2 c2 (ec) | A2 Bc (Bc d2- | dcBA G2 AB | c4- cB AB/c/ | d2) d2 z2 dd | %17
w: di, e- go|sum, sum pa- nis|vi- vus, qui de *|coe- lo de- scen\- * *|||* di, qui de|
 (gf)ed (c2 fe | de f4- e_d | c3 B/_A/ B2 e2- | e2 d2) e4 | z4 z2 (d/c/) (=B/A/) | G2 A=B (cec_A | %23
w: coe\- * lo de- scen\- * *|||* * di,|qui * de *|coe- lo de- scen\- * * *|
 ^F4 G=B c2- | c2 =BA B4) | c8 ||[M:3/2]"^andante"[Q:1/4=180] z12 | z12 | z12 | z12 | z4 z4 G4 | %31
w: ||di;|||||si|
[M:3/2][Q:1/4=180][Q:1/4=180][Q:1/4=180] d4 c4 B4 | c6 B2 A4 | d4 c8 | (B6 A2) G4 | z4 c6 B2 | %36
w: quis man- du-|ca- ve- rit|ex hoc|pa\- * ne,|vi- vet,|
 A4 F4 z4 | z4 F4 B4 | G4 G4 c2 B2 | (A8 B4- | B4 A8) | B8 F4 | c4 B4 A4 | B6 A2 G4 | c4 B8 | %45
w: vi- vet,|vi- vet,|vi- vet in ae-|ter\- *||num, si|quis man- du-|ca- ve- rit|ex hoc|
 (A6 G2) F4 | z4 d6 c2 | B4 B4 d4- | d4 (c2 B2) (c4- | c4 B2 A2 B4- | A12) | G8 z4 | z12 | z12 | %54
w: pa\- * ne,|vi- vet,|vi- vet in|* ae\- * ter\-|||num,|||
 z12 | z4 c6 B2 | _A4 F4 z4 | z4 F4 B4 | G4 G4 A2 =B2 | (c6 e2 d2 c2 | =B2 c2 d8- | d4 G4 c4- | %62
w: |vi- vet,|vi- vet,|vi- vet,|vi- vet in ae-|ter\- * * *|||
 c4 =B8) | c4 c4 c4 | (f4 d4)"^adagio" c4 |[Q:1/4=140] (=B8 c4- | c4 =B8) | !fermata!c12 |] %68
w: |num, vi- vet|in * ae-|ter\- *||num.|
V:2
 z2 GE C4 | z _AAA A2 G2 | G2 (BG) =E2 FG | (_AGFE D2 EF | G6 F2 | G4 z4 | z8 | z8 | z8 | z8 | %10
w: E- go sum,|sum pa- nis vi- vus,|qui de * coe- lo de-|scen\- * * * * * *||di,|||||
 z2 A^F D4 | z GGG G2 ^F2 | G2 BG) (E4- | EF)DC (D3 E/F/ | G4- GFED | C2 DE F4- | FE DE/F/ G2) G2 | %17
w: e- go sum,|sum pa- nis vi- vus,|qui de * coe\-|* * lo de- scen\- * *|||* * * * * * di,|
 z2 GG (cB)_AG | (F3 B/_A/ GA B2- | BE _A4 G2 | F4) E2 (G/F/) (E/D/) | C2 DE (F_AFD | =B,2 CD E4- | %23
w: qui de coe\- * lo de-|scen\- * * * * *||* di, qui * de *|coe- lo de- scen\- * * *||
 E2 DC =B,G ED/C/) | D8 | C8 ||[M:3/2] z4 z4 C4 | G4 F4 E4 | F6 E2 D4 | G4 F8 | (E6 D2) C4 | %31
w: ||di;|si|quis man- du-|ca- ve- rit|ex hoc|pa\- * ne,|
[M:3/2] z12 | z12 | z12 | z4 G6 F2 | E4 C4 z4 | z4 C4 F4 | D4 B,4 F4- | F4 (E2 D2) (E4- | %39
w: |||vi- vet,|vi- vet,|vi- vet,|vi- vet in|* ae\- * ter\-|
 E4 D2 C2 D4 | C12) | B,8 z4 | z12 | z12 | z12 | z4 F6 E2 | D4 D4 A4- | A4 (G2 ^F2) (G4 | %48
w: ||num,||||vi- vet,|vi- vet in|* ae\- * ter\-|
 E6 E2 D2 C2 | D8 G4- | G4 ^F8) | G8 D4 | G4 F4 E4 | F6 E2 D4 | G4 F8 | (E6 D2) C4 | z4 F6 E2 | %57
w: |||num, si|quis man- du-|ca- ve- rit|ex hoc|pa\- * ne,|vi- vet,|
 D4 B,4 z4 | z12 | z4 C4 F4 | D4 D4 E2 F2 | (G6 F2 E2 F2 | D12) | C4- E4 E4- | (_A4 F4) E4 | %65
w: vi- vet,||vi- vet,|vi- vet in ae-|ter\- * * *||num, vi- vet|in * ae-|
 (D8 E4 | D12) | !fermata!C12 |] %68
w: ter\- *||num.|
V:3
"^largo" [EGc]4 z2 ec | [CF]2 _AF D2- [DG]2 | [DG]2 [_DF]2 [C=E]2 [_A,CF][B,EG] | %3
 [CF_A]3 [_EG] [DF]2 [EG][FA] | [GB]2 [_Ae][Bd] c4 | [D=B]4 z2 [DB][Gc] | [Ge]2 ec A2- [Ad]2 | %7
 [Ad]2 [_Ac]2 [G=B]2 [EGc][FBd] | [Gce][Fd] [EGc][DB] [CFA]2 [DFB][EAc] | %9
 [FBd]2 [^FAc]2 [GB]2 [Cc]2 | [D^FA]4 [DGd]4 | [B,EG]2 ge c4- | cB dB G4 | [CA]2 [DB][Ec] [DFB]4 | %14
 [Dd]4 [Gc][FB] [EA][DG] | [CF]4 [CFc]4 | [DFB]4 B3 A | G2 B2 E2 [Fc]2 | %18
 [FB]3 [F_A]- [FG][FA] [EB]2- | B2 _A4 G2 | c_A [DF]2 [B,EG]4 | E2 FG [F_A]4 | %22
 [=B,DG]2 [CE=A][DF=B] [Ec]4 | [^FA]4 G4- | [DFG]6 [G,DF]2 | [G,C=E]8 || %26
[M:3/2]"^andante" [E,G,C]12 | [G,CE]12 | [_A,DF]12 | G4 F8 | [G,CE]12 |[M:3/2] [G,DG]12 | %32
 [A,C^F]12 | [CDA]12 | [B,DG]12 | E4 G4 E4 | [A,C]4 [CF]4 [CFA]4 | [DFB]4 [B,F]4 [DB]4 | %38
 [B,G]8- [CG]4 | [CA]8 [DFB]4- | [GB]4 [FA]4- [EA]4 | [B,DB]8 [Fd]4 | [Fc]12 | [=EB]12 | c4 B8 | %45
 [FA]12 | d8 c4 | B8 d4- | d4 c2 B2 c4- | c4 B2 A2 B4 | A12 | [B,DG]12 | G8- G2 A2 | =B4 A4 B4 | %54
 c8 =B4 | c6 _B2 _A2 G2 | _A4 c4 A4 | [DF]4 [FB]4 [DF]4 | [B,EG]8 A2 =B2 | c8 d2 c2 | [DG=B]12- | %61
 [DGB]4 c6 _B2 | _A4 G4 F4 | [CE]4 [EG]4 c4- | c4 d4 c4 | [DG=B]8 [E=Ac-]4 | c4 =B8 | %67
 !fermata![=EGc]12 |] %68
V:4
 x6 E2 | x2 _A,4 G,2- | G,2 x6 | x8 | x4 E2 FC | x8 | x2 E2 x2 D2- | D6 x2 | x8 | x4 G4 | x8 | %11
 x2 G4 [C^F]2 | [DG]4 E4- | E2 x2 x4 | B3 A x4 | x8 | x4 [DG]2 [B,D]2 | [B,E]4 C4 | D3 B, B,3 _D | %19
 [CE]4 [B,E]4 | [CF]2 x2 x4 | [CE]4 C2 D2 | x4 G2 _A2 | E2 DC [=B,D]2 [CE]2 | x8 | x8 || %26
[M:3/2] x12 | x12 | x12 | [G,D]12 | x12 |[M:3/2] x12 | x12 | x12 | x12 | [G,C]12 | x12 | %37
 x4 x4 F4- | F4 E8- | E8 x4 | C12 | x12 | x12 | x12 | [CG]12 | C8 _E4 | [DA]12- | %47
 [DA]4 [DG]4 [DB]4 | [EG]12 | [DG]12- | [EG]4 [D^F]4- [CF]4 | x12 | =B,4 C2 D2 E4 | F12 | G4 F8 | %55
 E12 | [CF]12 | B,12 | x4 x4 [DF]4 | [EG]4 [CE]4 [F_A]4 | x12 | x4 [CG]8- | [CD]4 [=B,D]8 | %63
 x4 x4 [E_A]4- | [FA]8 [E_A]4 | x12 | [DG]8- [DF]4 | x12 |] %68
V:5
 C,4 z2 C_A, | F,2 F,D, =B,,4 | _B,,6 _A,,G,, | F,,4 B,,_A,,G,,F,, | E,,2 F,,G,, _A,,4 | %5
w: |* * * 7~~~~~6|6~~~~~~~~~~~~~~~~4 6 6||* * * 7~~6|
w: ||~~~~~~~~~~~~~~~~~~2 * *|||
 G,,4 z2 G,E, | C,2 CA, ^F,4 | !courtesy!=F,6- E,D, | C,2 D,E, F,E,D,C, | B,,2 C,D, E,4 | %10
w: |* * * 7~~~~~~~6|6~~~~~~~~~~~~~~~~4 6 6||* * * 7~~~~6|
w: ||~~~~~~~~~~~~~~~~~~2 * *|||
 D,4 B,,4 | E,2 E,C, A,,4 | G,,4 C,4 | F,4 B,3 A, | G,3 F, E,D,C,B,, | A,,8 | B,,3 A,, G,,2 G,F, | %17
w: * 6|* * * 7~~~~~~~~~~~`6|4~~~~~~~3 *|7 * *||||
w: |||||||
 E,F, G,2 _A,4 | B,CDD, E,F, G,2 | _A,4 E,2 G,E, | _A,F,B,B,, E,4 | _A,3 G, F,4- | F,2 E,D, C,4 | %23
w: * * * 5~~~~~~~~~6|* * * 6 9 * 6~~~~5|9~~~~~~~8 5 * *|6 * * * *|* * ~~~~~~~~~~~~~~6|4 * * 5~~~~~~~~~6|
w: |* * * 5 * * *|* 4 * *|5 * * * *||2 * * *|
 D,4 G,,4- | G,,8 | C,8 ||[M:3/2] C,12 | C,12 | C,12 | =B,,12 | C,12 |[M:3/2] !courtesy!_B,,12 | %32
w: 9~~8~~~7 ~~~~~~~~~6|5||||4|6~~~~~~~~~5||6|
w: * ~~~~~~~~~4|4||||2||||
 A,,12 | ^F,,12 | G,,12 | C,4 E,4 C,4 | F,4 A,4 F,4 | B,,4 D,4 B,,4 | E,12 | F,8 B,,4 | E,4 F,8 | %41
w: 6|6~~~~~~~~5|||||9~~~~~8|7 *|6 *|
w: ||||||||5 *|
 B,,8 B,4 | A,12 | G,12 | =E,12 | F,12 | ^F,12 | G,12 | C,12 | G,12 | C,4 D,8 | G,,12 | %52
w: |6|6|6~~~~~~~5|7|6~~~~~~~~~~~~~5|9~~~~~~8|9~~~~~~~8|4~~~~3|6 *||
w: |||||||||5 *||
 G,,4 A,,2 =B,,2 C,4 | D,12 | E,4 D,8 | C,12 | F,4 _A,4 F,4 | B,,4 D,4 B,,4 | E,8 D,4 | %59
w: * 6 5 *|6|6 7~~~6||||* 5~~~~~6|
w: |||||||
 C,4 _A,4 F,4 | G,8 F,4 | E,12 | F,4 G,8 | C,4 C4 _A,4 | F,12- | F,8 ^F,4 | G,12 | !fermata!C,12 |] %68
w: * * 6||7~~~~~~~6|6 *|* * 5|~~~~~~~~~6~~~~~~~~7|4 7|4||
w: |||5 *|||2 5|||

